X:10
T:Hey downe a downe
M:4/4
L:1/4
K:Dmix
[V:1]
z4|A3 G/2 F/2|E3 F |G2 E2| D4 | 
w:Hey down a  down, be-hold and see,
D2 D D| A4 | G > F G A |B3 B |
w:what song is this, or how may this be, three
d3 d |A3 A | c3 B/2 A/2|G3 A |
w:parts in one: Sing all af-ter me with
B B B A/2 G/2 | F D D2 | A3 G/2 F/2| E3 F| G2 F E|D2 D2 ||
w:hey down down a down down a down Hey troll the ber-ry drink and be mer-ry.
%
[V:2]
D3 C/2 B,/2|A,3 B, |C2 A,2| G,4 | G,2 G, G,|
w:Hey down a down, be-hold and see, what song is
D4 |C > B, C D |E3 E |G3 G |D3 D |=F3 E/2 D/2|
w:this, or how may this be, three parts in one: Sing all af-ter
C3 D |E E E D/2 C/2 | B, G, G,2 | D3 C/2 B,/2| A,3 B,| C2 B, A,|G,2 G,2 |z4 ||
w:me with hey down down a down down a down Hey troll the ber-ry drink and be mer-ry.




